img/program/img-2.svg

<svg width="87" height="154" viewBox="0 0 87 154" fill="none" xmlns="http://www.w3.org/2000/svg">
<path d="M34.8383 37.3613H51.3506L56.3916 128.881C42.7727 128.881 43.3565 128.881 29.7419 128.881L34.8383 37.3613Z" fill="url(#paint0_linear)"/>
<path d="M29.7462 128.881L34.8384 37.3613H51.3506L51.96 48.4616C48.4061 50.4447 43.7145 54.6427 41.6308 63.3692C38.0812 78.2511 49.024 86.8489 49.024 86.8489C49.024 86.8489 41.5626 97.3912 43.2287 128.885C39.807 128.881 36.6451 128.881 29.7462 128.881Z" fill="url(#paint1_linear)"/>
<path d="M3.56532 0C7.95438 0 78.239 0 82.628 0C84.5456 0 86.0967 1.56245 86.0967 3.49405V5.41706C81.3198 5.41706 4.87351 5.41706 0.0966797 5.41706V3.49405C0.0966797 1.56245 1.64777 0 3.56532 0Z" fill="url(#paint2_linear)"/>
<path d="M84.0171 5.4126C84.0171 25.2051 69.465 42.5852 50.379 44.036C46.7484 44.3107 39.449 44.2721 35.8141 44.036C16.7153 42.7912 2.17606 25.2094 2.17606 5.4126C6.71852 5.4126 79.4746 5.4126 84.0171 5.4126Z" fill="url(#paint3_linear)"/>
<path d="M16.3192 5.4126C15.9698 13.1648 17.4101 31.9099 38.8994 35.4254C52.0495 37.5802 66.738 33.1976 76.4834 28.8923C70.3984 37.3741 61.1046 43.2204 50.3749 44.036C46.7443 44.3107 39.4448 44.2721 35.81 44.036C16.7112 42.7912 2.17194 25.2094 2.17194 5.4126C3.31394 5.4126 8.747 5.4126 16.3192 5.4126Z" fill="url(#paint4_linear)"/>
<path d="M29.8867 128.881C38.716 128.881 47.5239 128.881 56.3063 128.881C59.2508 128.881 61.6328 131.284 61.6328 134.246V134.615C57.525 134.615 29.1836 134.615 24.5602 134.615V134.246C24.5602 131.28 26.9465 128.881 29.8867 128.881Z" fill="url(#paint5_linear)"/>
<path d="M63.231 134.615V152.167C58.7609 152.167 27.4324 152.167 22.9624 152.167V134.615C27.9566 134.615 58.2837 134.615 63.231 134.615Z" fill="#5669A9"/>
<path d="M22.9623 152.167V134.615C25.0801 134.615 31.7532 134.615 39.1123 134.615C39.1123 134.615 30.5984 136.41 29.5288 142.312C29.0388 145.02 29.1112 148.836 29.3285 152.172C26.2732 152.167 23.9551 152.167 22.9623 152.167Z" fill="#3B4547"/>
<path d="M22.0673 152.167C26.7376 152.167 59.4553 152.167 64.1256 152.167C65.0162 152.167 65.7363 152.893 65.7363 153.79V154.004C60.5249 154.004 25.6723 154.004 20.4608 154.004V153.79C20.4566 152.893 21.1767 152.167 22.0673 152.167Z" fill="url(#paint6_linear)"/>
<path d="M29.6911 75.6284C29.7593 76.1435 30.4837 76.5256 30.603 77.0192C30.7266 77.5214 30.2621 78.1996 30.4368 78.6761C30.6158 79.1611 31.4084 79.3715 31.6342 79.8265C31.8644 80.2857 31.5618 81.0541 31.8388 81.479C32.12 81.9083 32.9382 81.9383 33.262 82.3289C33.5859 82.7238 33.4623 83.5394 33.8288 83.8957C34.1952 84.252 35.0006 84.0974 35.4054 84.4065C35.8102 84.7198 35.8656 85.544 36.3003 85.8058C36.7349 86.0719 37.4849 85.7371 37.9494 85.9518C38.4096 86.1664 38.6482 86.9562 39.1297 87.1193C39.6113 87.2781 40.2675 86.7888 40.7703 86.8918C41.2646 86.9948 41.6737 87.7117 42.1808 87.7632C42.6836 87.8104 43.2163 87.1837 43.7276 87.1708C44.2304 87.1622 44.7844 87.7675 45.2957 87.7031C45.8071 87.6344 46.1863 86.9047 46.6764 86.7845C47.1749 86.66 47.8482 87.1279 48.3212 86.9562C48.8027 86.7759 49.0115 85.9775 49.4632 85.75C49.9192 85.5182 50.6819 85.823 51.1038 85.544C51.5299 85.2607 51.5597 84.4365 51.9475 84.1103C52.3395 83.7841 53.1492 83.9086 53.5028 83.5394C53.8565 83.1703 53.6989 82.359 54.0099 81.9555C54.321 81.5477 55.1392 81.4919 55.3991 81.0541C55.6633 80.6163 55.3309 79.8608 55.544 79.3929C55.757 78.9293 56.5411 78.689 56.703 78.2039C56.8607 77.7189 56.3749 77.0578 56.4772 76.5513C56.5794 76.0534 57.2911 75.6413 57.3422 75.1305C57.3891 74.624 56.7669 74.0875 56.7542 73.5724C56.7456 73.0659 57.3465 72.5078 57.2825 71.9927C57.2144 71.4777 56.49 71.0956 56.3706 70.602C56.2471 70.0998 56.7115 69.4216 56.5411 68.9451C56.3621 68.4601 55.5695 68.2497 55.3437 67.7947C55.1136 67.3354 55.4161 66.5671 55.1392 66.1421C54.8579 65.7129 54.0398 65.6829 53.7159 65.2922C53.3921 64.8973 53.5156 64.0818 53.1492 63.7255C52.7827 63.3692 51.9773 63.5238 51.5768 63.2147C51.172 62.9014 51.1166 62.0772 50.6819 61.8154C50.2473 61.5492 49.4973 61.884 49.0328 61.6694C48.5726 61.4548 48.334 60.665 47.8525 60.5019C47.3709 60.3431 46.7147 60.8324 46.2119 60.7294C45.7176 60.6264 45.3085 59.9095 44.8014 59.858C44.2986 59.8108 43.7659 60.4375 43.2546 60.4504C42.7518 60.459 42.1978 59.8537 41.6865 59.9181C41.1751 59.9868 40.7959 60.7165 40.3058 60.8367C39.8073 60.9612 39.134 60.4933 38.661 60.665C38.1795 60.8453 37.9707 61.6437 37.519 61.8712C37.063 62.103 36.3003 61.7982 35.8784 62.0772C35.4523 62.3605 35.4225 63.1847 35.0347 63.5109C34.6427 63.8371 33.833 63.7126 33.4794 64.0818C33.1257 64.4509 33.2833 65.2622 32.9723 65.6657C32.6612 66.0735 31.843 66.1293 31.5831 66.5671C31.3189 67.0049 31.6513 67.7604 31.4382 68.2283C31.2252 68.6919 30.4411 68.9322 30.2792 69.4173C30.1215 69.9023 30.6073 70.5634 30.505 71.0699C30.4028 71.5678 29.6911 71.9799 29.64 72.4907C29.5931 72.9972 30.2153 73.5337 30.228 74.0488C30.228 74.5553 29.623 75.1133 29.6911 75.6284Z" fill="url(#paint7_linear)"/>
<path d="M29.5761 73.8129C29.5761 74.3323 30.2451 74.8088 30.3005 75.311C30.3559 75.8261 29.8104 76.4399 29.9212 76.9335C30.0363 77.4357 30.7948 77.7491 30.961 78.2298C31.1314 78.7149 30.7309 79.436 30.9524 79.8953C31.174 80.3589 31.9837 80.492 32.2521 80.9255C32.5248 81.359 32.2947 82.1531 32.6101 82.5523C32.9297 82.9515 33.7478 82.9043 34.1058 83.2649C34.4637 83.6254 34.4168 84.4496 34.8131 84.7715C35.2094 85.0892 35.9977 84.8617 36.4281 85.1321C36.8585 85.4025 36.9906 86.2181 37.4508 86.4413C37.9068 86.6645 38.6227 86.261 39.1042 86.4327C39.5814 86.6001 39.8925 87.3642 40.3911 87.4801C40.8811 87.5917 41.4904 87.0379 42.0018 87.098C42.5004 87.1538 42.9734 87.8278 43.489 87.8278C44.0046 87.8278 44.4776 87.1538 44.9761 87.098C45.4875 87.0422 46.0968 87.5917 46.5869 87.4801C47.0854 87.3642 47.3965 86.6001 47.8738 86.4327C48.3553 86.261 49.0712 86.6645 49.5271 86.4413C49.9873 86.2181 50.1194 85.4025 50.5498 85.1321C50.9802 84.8574 51.7685 85.0892 52.1648 84.7715C52.5611 84.4496 52.5142 83.6254 52.8722 83.2649C53.2301 82.9043 54.0483 82.9515 54.3679 82.5523C54.6832 82.1531 54.4573 81.359 54.7258 80.9255C54.9943 80.492 55.8039 80.3589 56.0255 79.8953C56.2471 79.436 55.8465 78.7149 56.017 78.2298C56.1831 77.7491 56.9416 77.4357 57.0567 76.9335C57.1675 76.4399 56.6178 75.8261 56.6774 75.311C56.7328 74.8088 57.4019 74.3323 57.4019 73.8129C57.4019 73.2935 56.7328 72.8171 56.6774 72.3149C56.622 71.7998 57.1675 71.1859 57.0567 70.6923C56.9416 70.1901 56.1831 69.8768 56.017 69.396C55.8465 68.911 56.2471 68.1898 56.0255 67.7305C55.8039 67.2669 54.9943 67.1339 54.7258 66.7003C54.4531 66.2668 54.6832 65.4727 54.3679 65.0735C54.0483 64.6743 53.2301 64.7215 52.8722 64.361C52.5142 64.0004 52.5611 63.1762 52.1648 62.8543C51.7685 62.5367 50.9802 62.7642 50.5498 62.4937C50.1194 62.2233 49.9873 61.4078 49.5271 61.1846C49.0712 60.9613 48.3553 61.3648 47.8738 61.1931C47.3965 61.0257 47.0854 60.2617 46.5869 60.1458C46.0968 60.0342 45.4875 60.5879 44.9761 60.5278C44.4776 60.472 44.0046 59.7981 43.489 59.7981C42.9734 59.7981 42.5004 60.472 42.0018 60.5278C41.4904 60.5836 40.8811 60.0342 40.3911 60.1458C39.8925 60.2617 39.5814 61.0257 39.1042 61.1931C38.6227 61.3648 37.9068 60.9613 37.4508 61.1846C36.9906 61.4078 36.8585 62.2233 36.4281 62.4937C35.9977 62.7685 35.2094 62.5367 34.8131 62.8543C34.4168 63.1762 34.4637 64.0004 34.1058 64.361C33.7478 64.7215 32.9297 64.6743 32.6101 65.0735C32.2947 65.4727 32.5206 66.2668 32.2521 66.7003C31.9837 67.1339 31.174 67.2669 30.9524 67.7305C30.7309 68.1898 31.1314 68.911 30.961 69.396C30.7948 69.8768 30.0363 70.1901 29.9212 70.6923C29.8104 71.1859 30.3601 71.7998 30.3005 72.3149C30.2451 72.8171 29.5761 73.2935 29.5761 73.8129Z" fill="url(#paint8_linear)"/>
<path d="M43.4887 86.8447C50.622 86.8447 56.4258 80.9984 56.4258 73.8129C56.4258 66.6273 50.622 60.781 43.4887 60.781C36.3554 60.781 30.5516 66.6273 30.5516 73.8129C30.5516 80.9984 36.3554 86.8447 43.4887 86.8447Z" fill="url(#paint9_linear)"/>
<path d="M31.2889 73.8128C31.2889 80.5992 36.7476 86.0978 43.4846 86.0978C50.2215 86.0978 55.6802 80.5992 55.6802 73.8128C55.6802 67.0265 50.2215 61.5278 43.4846 61.5278C36.7518 61.5278 31.2889 67.0265 31.2889 73.8128Z" fill="url(#paint10_linear)"/>
<path d="M32.9676 73.8127C32.9676 79.6634 37.6762 84.4065 43.4843 84.4065C49.2923 84.4065 54.001 79.6634 54.001 73.8127C54.001 67.9621 49.2923 63.219 43.4843 63.219C37.6762 63.219 32.9676 67.9621 32.9676 73.8127Z" fill="url(#paint11_linear)"/>
<path d="M43.4504 83.355L52.3478 69.7866C52.4757 69.5892 52.4245 69.323 52.2285 69.19C52.0325 69.0569 51.7683 69.1127 51.6362 69.3101L42.7388 82.8786C42.611 83.076 42.6621 83.3421 42.8581 83.4752C43.0584 83.6083 43.3226 83.5525 43.4504 83.355Z" fill="url(#paint12_linear)"/>
<path d="M40.105 82.5609L50.3319 67.267C50.464 67.0695 50.4129 66.8034 50.2169 66.6703C50.0209 66.5372 49.7567 66.5887 49.6246 66.7862L39.3976 82.0802C39.2655 82.2776 39.3167 82.5438 39.5127 82.6768C39.7087 82.8099 39.9729 82.7584 40.105 82.5609Z" fill="url(#paint13_linear)"/>
<path d="M37.2802 81.226L46.1222 68.5075C46.2586 68.3143 46.2117 68.0439 46.0157 67.9108C45.8239 67.7735 45.5598 67.8207 45.4234 68.0181L36.5814 80.7366C36.445 80.9298 36.4919 81.2002 36.6879 81.3333C36.8754 81.4663 37.1396 81.4234 37.2802 81.226Z" fill="url(#paint14_linear)"/>
<path d="M40.0967 72.0572L44.8394 65.5112C44.98 65.318 44.9374 65.0519 44.7456 64.9102C44.5539 64.7686 44.2897 64.8115 44.1491 65.0047L39.4063 71.5506C39.2657 71.7438 39.3083 72.0099 39.5001 72.1516C39.6918 72.2932 39.956 72.2503 40.0967 72.0572Z" fill="url(#paint15_linear)"/>
<defs>
<linearGradient id="paint0_linear" x1="55.6713" y1="83.6114" x2="31.6069" y2="83.6451" gradientUnits="userSpaceOnUse">
<stop stop-color="#E2D0FF"/>
<stop offset="1" stop-color="#8A4CEA"/>
</linearGradient>
<linearGradient id="paint1_linear" x1="27.2806" y1="64.5722" x2="45.4604" y2="68.803" gradientUnits="userSpaceOnUse">
<stop stop-color="#9F27F8"/>
<stop offset="1" stop-color="#5F1397"/>
</linearGradient>
<linearGradient id="paint2_linear" x1="83.7724" y1="2.73757" x2="-6.32206" y2="7.87203" gradientUnits="userSpaceOnUse">
<stop stop-color="#5D28B0"/>
<stop offset="1" stop-color="#8A4CEA"/>
</linearGradient>
<linearGradient id="paint3_linear" x1="81.8052" y1="25.0283" x2="7.91078" y2="25.7762" gradientUnits="userSpaceOnUse">
<stop stop-color="#E2D0FF"/>
<stop offset="1" stop-color="#8A4CEA"/>
</linearGradient>
<linearGradient id="paint4_linear" x1="-6.07623" y1="16.9528" x2="8.59502" y2="43.8849" gradientUnits="userSpaceOnUse">
<stop stop-color="#9F27F8"/>
<stop offset="1" stop-color="#5F1397"/>
</linearGradient>
<linearGradient id="paint5_linear" x1="20.4453" y1="130.586" x2="21.2566" y2="135.615" gradientUnits="userSpaceOnUse">
<stop stop-color="#9F27F8"/>
<stop offset="1" stop-color="#5F1397"/>
</linearGradient>
<linearGradient id="paint6_linear" x1="15.4355" y1="152.713" x2="15.5053" y2="154.364" gradientUnits="userSpaceOnUse">
<stop stop-color="#9F27F8"/>
<stop offset="1" stop-color="#5F1397"/>
</linearGradient>
<linearGradient id="paint7_linear" x1="56.5959" y1="73.9602" x2="31.577" y2="74.0794" gradientUnits="userSpaceOnUse">
<stop stop-color="#E2D0FF"/>
<stop offset="1" stop-color="#8A4CEA"/>
</linearGradient>
<linearGradient id="paint8_linear" x1="26.4876" y1="68.1316" x2="39.0822" y2="80.1201" gradientUnits="userSpaceOnUse">
<stop stop-color="#9F27F8"/>
<stop offset="1" stop-color="#5F1397"/>
</linearGradient>
<linearGradient id="paint9_linear" x1="55.7265" y1="73.9526" x2="32.3628" y2="74.0639" gradientUnits="userSpaceOnUse">
<stop stop-color="#E2D0FF"/>
<stop offset="1" stop-color="#8A4CEA"/>
</linearGradient>
<linearGradient id="paint10_linear" x1="28.5816" y1="68.8327" x2="39.6217" y2="79.3414" gradientUnits="userSpaceOnUse">
<stop stop-color="#9F27F8"/>
<stop offset="1" stop-color="#5F1397"/>
</linearGradient>
<linearGradient id="paint11_linear" x1="53.4325" y1="73.9263" x2="34.4399" y2="74.0168" gradientUnits="userSpaceOnUse">
<stop stop-color="#E2D0FF"/>
<stop offset="1" stop-color="#8A4CEA"/>
</linearGradient>
<linearGradient id="paint12_linear" x1="41.5865" y1="73.4077" x2="47.5112" y2="77.2458" gradientUnits="userSpaceOnUse">
<stop stop-color="#9F27F8"/>
<stop offset="1" stop-color="#5F1397"/>
</linearGradient>
<linearGradient id="paint13_linear" x1="38.0944" y1="71.3993" x2="44.7675" y2="75.7883" gradientUnits="userSpaceOnUse">
<stop stop-color="#9F27F8"/>
<stop offset="1" stop-color="#5F1397"/>
</linearGradient>
<linearGradient id="paint14_linear" x1="35.4271" y1="71.869" x2="41.1222" y2="75.769" gradientUnits="userSpaceOnUse">
<stop stop-color="#9F27F8"/>
<stop offset="1" stop-color="#5F1397"/>
</linearGradient>
<linearGradient id="paint15_linear" x1="38.7019" y1="67.0293" x2="41.8691" y2="69.3244" gradientUnits="userSpaceOnUse">
<stop stop-color="#9F27F8"/>
<stop offset="1" stop-color="#5F1397"/>
</linearGradient>
</defs>
</svg>

<svg width="87" height="154" fill="none" xmlns="http://www.w3.org/2000/svg"><path d="M34.838 37.361h16.513l5.04 91.52h-26.65l5.097-91.52z" fill="url(#paint0_linear)"/><path d="M29.746 128.881l5.092-91.52h16.513l.609 11.1c-3.554 1.984-8.245 6.182-10.33 14.908-3.549 14.882 7.394 23.48 7.394 23.48s-7.461 10.542-5.795 42.036c-3.422-.004-6.584-.004-13.483-.004z" fill="url(#paint1_linear)"/><path d="M3.565 0h79.063c1.918 0 3.469 1.562 3.469 3.494v1.923h-86V3.494C.097 1.562 1.647 0 3.565 0z" fill="url(#paint2_linear)"/><path d="M84.017 5.413c0 19.792-14.552 37.172-33.638 38.623-3.63.275-10.93.236-14.565 0C16.715 42.791 2.176 25.209 2.176 5.413h81.841z" fill="url(#paint3_linear)"/><path d="M16.32 5.413c-.35 7.752 1.09 26.497 22.58 30.012 13.15 2.155 27.838-2.227 37.583-6.533-6.085 8.482-15.378 14.328-26.108 15.144-3.63.275-10.93.236-14.565 0C16.711 42.791 2.172 25.209 2.172 5.413h14.147z" fill="url(#paint4_linear)"/><path d="M29.887 128.881h26.42c2.944 0 5.326 2.403 5.326 5.365v.369H24.56v-.369c0-2.966 2.387-5.365 5.327-5.365z" fill="url(#paint5_linear)"/><path d="M63.231 134.615v17.552H22.962v-17.552h40.269z" fill="#5669A9"/><path d="M22.962 152.167v-17.552h16.15s-8.514 1.795-9.583 7.697c-.49 2.708-.418 6.524-.2 9.86-3.056-.005-5.374-.005-6.367-.005z" fill="#3B4547"/><path d="M22.067 152.167h42.059c.89 0 1.61.726 1.61 1.623v.214H20.461v-.214a1.61 1.61 0 011.606-1.623z" fill="url(#paint6_linear)"/><path d="M29.691 75.628c.068.516.793.898.912 1.391.124.502-.34 1.18-.166 1.657.179.485.971.695 1.197 1.15.23.46-.072 1.228.205 1.653.281.43 1.1.46 1.423.85.324.395.2 1.21.567 1.567.366.356 1.172.201 1.576.51.405.314.46 1.138.895 1.4.435.266 1.185-.069 1.65.146.46.214.698 1.004 1.18 1.167.481.16 1.137-.33 1.64-.227.495.103.904.82 1.41.871.504.047 1.036-.58 1.548-.592.502-.009 1.056.596 1.568.532.511-.069.89-.798 1.38-.919.499-.124 1.172.344 1.645.172.482-.18.69-.978 1.142-1.206.456-.232 1.219.073 1.64-.206.427-.283.457-1.108.844-1.434.392-.326 1.202-.201 1.556-.57.353-.37.196-1.181.507-1.585.311-.407 1.13-.463 1.39-.9.263-.439-.07-1.194.144-1.662.213-.464.997-.704 1.159-1.19.158-.484-.328-1.145-.226-1.652.102-.498.814-.91.865-1.42.047-.507-.575-1.043-.588-1.559-.008-.506.593-1.064.529-1.58-.069-.514-.793-.896-.912-1.39-.124-.502.34-1.18.17-1.657-.179-.485-.971-.695-1.197-1.15-.23-.46.072-1.228-.205-1.653-.281-.43-1.1-.46-1.423-.85-.324-.395-.2-1.21-.567-1.567-.366-.356-1.172-.201-1.572-.51-.405-.314-.46-1.138-.895-1.4-.435-.266-1.185.069-1.65-.146-.46-.214-.698-1.004-1.18-1.167-.481-.159-1.137.33-1.64.227-.494-.103-.904-.82-1.41-.871-.503-.047-1.036.58-1.547.592-.503.009-1.057-.596-1.569-.532-.51.069-.89.799-1.38.919-.499.124-1.172-.344-1.645-.172-.482.18-.69.979-1.142 1.206-.456.232-1.219-.073-1.64.206-.427.284-.456 1.108-.844 1.434-.392.326-1.202.202-1.556.57-.353.37-.196 1.181-.507 1.585-.31.407-1.129.463-1.389.901-.264.438.068 1.193-.145 1.661-.213.464-.997.704-1.159 1.19-.157.484.328 1.145.226 1.652-.102.498-.814.91-.865 1.42-.047.507.575 1.044.588 1.559 0 .506-.605 1.064-.537 1.58z" fill="url(#paint7_linear)"/><path d="M29.576 73.813c0 .52.67.996.724 1.498.056.515-.49 1.129-.379 1.622.115.503.874.816 1.04 1.297.17.485-.23 1.206-.009 1.665.222.464 1.032.597 1.3 1.03.273.434.043 1.228.358 1.627.32.4 1.138.352 1.496.713.358.36.31 1.185.707 1.507.396.317 1.185.09 1.615.36.43.27.563 1.086 1.023 1.31.456.223 1.172-.181 1.653-.01.477.168.788.932 1.287 1.048.49.112 1.1-.442 1.61-.382.5.056.972.73 1.488.73s.989-.674 1.487-.73c.511-.056 1.12.494 1.61.382.5-.116.81-.88 1.288-1.047.481-.172 1.197.231 1.653.008.46-.223.592-1.038 1.023-1.309.43-.275 1.219-.043 1.615-.36.396-.322.35-1.147.707-1.507.358-.36 1.176-.314 1.496-.713.315-.399.09-1.193.358-1.627.268-.433 1.078-.566 1.3-1.03.221-.459-.18-1.18-.009-1.665.166-.48.925-.794 1.04-1.297.11-.493-.44-1.107-.38-1.622.056-.502.725-.979.725-1.498 0-.52-.67-.996-.725-1.498-.055-.515.49-1.13.38-1.623-.115-.502-.874-.815-1.04-1.296-.17-.485.23-1.206.008-1.665-.221-.464-1.03-.597-1.3-1.03-.272-.434-.042-1.228-.357-1.627-.32-.4-1.138-.352-1.496-.713-.358-.36-.31-1.185-.707-1.507-.396-.317-1.185-.09-1.615-.36-.43-.27-.563-1.086-1.023-1.31-.456-.223-1.172.18-1.653.01-.477-.168-.789-.932-1.287-1.048-.49-.112-1.1.442-1.61.382-.5-.056-.972-.73-1.488-.73s-.989.674-1.487.73c-.512.056-1.12-.494-1.61-.382-.5.116-.81.88-1.288 1.047-.481.172-1.197-.232-1.653-.008-.46.223-.593 1.038-1.023 1.309-.43.275-1.219.043-1.615.36-.396.322-.35 1.146-.707 1.507-.358.36-1.176.313-1.496.712-.315.4-.09 1.194-.358 1.627-.268.434-1.078.567-1.3 1.03-.221.46.18 1.181.009 1.666-.166.48-.925.794-1.04 1.296-.11.494.44 1.108.38 1.623-.056.502-.725.978-.725 1.498z" fill="url(#paint8_linear)"/><path d="M43.489 86.845c7.133 0 12.937-5.847 12.937-13.032 0-7.186-5.804-13.032-12.937-13.032-7.134 0-12.937 5.846-12.937 13.032 0 7.185 5.803 13.032 12.937 13.032z" fill="url(#paint9_linear)"/><path d="M31.289 73.813c0 6.786 5.459 12.285 12.196 12.285 6.736 0 12.195-5.499 12.195-12.285 0-6.787-5.459-12.285-12.195-12.285-6.733 0-12.196 5.498-12.196 12.285z" fill="url(#paint10_linear)"/><path d="M32.968 73.813c0 5.85 4.708 10.593 10.516 10.593s10.517-4.743 10.517-10.593-4.709-10.594-10.517-10.594-10.516 4.743-10.516 10.594z" fill="url(#paint11_linear)"/><path d="M43.45 83.355l8.898-13.568a.436.436 0 00-.12-.597.425.425 0 00-.592.12L42.74 82.88a.436.436 0 00.12.596c.2.133.464.078.591-.12z" fill="url(#paint12_linear)"/><path d="M40.105 82.56l10.227-15.293a.43.43 0 00-.115-.597.424.424 0 00-.592.116L39.398 82.08a.43.43 0 00.115.597c.196.133.46.081.592-.116z" fill="url(#paint13_linear)"/><path d="M37.28 81.226l8.842-12.719a.426.426 0 00-.106-.596.42.42 0 00-.593.107l-8.842 12.719a.426.426 0 10.7.489z" fill="url(#paint14_linear)"/><path d="M40.097 72.057l4.742-6.546a.43.43 0 00-.093-.6.422.422 0 00-.597.094l-4.743 6.546a.43.43 0 00.094.6.423.423 0 00.597-.094z" fill="url(#paint15_linear)"/><defs><linearGradient id="paint0_linear" x1="55.671" y1="83.611" x2="31.607" y2="83.645" gradientUnits="userSpaceOnUse"><stop stop-color="#E2D0FF"/><stop offset="1" stop-color="#8A4CEA"/></linearGradient><linearGradient id="paint1_linear" x1="27.281" y1="64.572" x2="45.46" y2="68.803" gradientUnits="userSpaceOnUse"><stop stop-color="#9F27F8"/><stop offset="1" stop-color="#5F1397"/></linearGradient><linearGradient id="paint2_linear" x1="83.772" y1="2.738" x2="-6.322" y2="7.872" gradientUnits="userSpaceOnUse"><stop stop-color="#5D28B0"/><stop offset="1" stop-color="#8A4CEA"/></linearGradient><linearGradient id="paint3_linear" x1="81.805" y1="25.028" x2="7.911" y2="25.776" gradientUnits="userSpaceOnUse"><stop stop-color="#E2D0FF"/><stop offset="1" stop-color="#8A4CEA"/></linearGradient><linearGradient id="paint4_linear" x1="-6.076" y1="16.953" x2="8.595" y2="43.885" gradientUnits="userSpaceOnUse"><stop stop-color="#9F27F8"/><stop offset="1" stop-color="#5F1397"/></linearGradient><linearGradient id="paint5_linear" x1="20.445" y1="130.586" x2="21.257" y2="135.615" gradientUnits="userSpaceOnUse"><stop stop-color="#9F27F8"/><stop offset="1" stop-color="#5F1397"/></linearGradient><linearGradient id="paint6_linear" x1="15.435" y1="152.713" x2="15.505" y2="154.364" gradientUnits="userSpaceOnUse"><stop stop-color="#9F27F8"/><stop offset="1" stop-color="#5F1397"/></linearGradient><linearGradient id="paint7_linear" x1="56.596" y1="73.96" x2="31.577" y2="74.079" gradientUnits="userSpaceOnUse"><stop stop-color="#E2D0FF"/><stop offset="1" stop-color="#8A4CEA"/></linearGradient><linearGradient id="paint8_linear" x1="26.488" y1="68.132" x2="39.082" y2="80.12" gradientUnits="userSpaceOnUse"><stop stop-color="#9F27F8"/><stop offset="1" stop-color="#5F1397"/></linearGradient><linearGradient id="paint9_linear" x1="55.727" y1="73.953" x2="32.363" y2="74.064" gradientUnits="userSpaceOnUse"><stop stop-color="#E2D0FF"/><stop offset="1" stop-color="#8A4CEA"/></linearGradient><linearGradient id="paint10_linear" x1="28.582" y1="68.833" x2="39.622" y2="79.341" gradientUnits="userSpaceOnUse"><stop stop-color="#9F27F8"/><stop offset="1" stop-color="#5F1397"/></linearGradient><linearGradient id="paint11_linear" x1="53.432" y1="73.926" x2="34.44" y2="74.017" gradientUnits="userSpaceOnUse"><stop stop-color="#E2D0FF"/><stop offset="1" stop-color="#8A4CEA"/></linearGradient><linearGradient id="paint12_linear" x1="41.587" y1="73.408" x2="47.511" y2="77.246" gradientUnits="userSpaceOnUse"><stop stop-color="#9F27F8"/><stop offset="1" stop-color="#5F1397"/></linearGradient><linearGradient id="paint13_linear" x1="38.094" y1="71.399" x2="44.767" y2="75.788" gradientUnits="userSpaceOnUse"><stop stop-color="#9F27F8"/><stop offset="1" stop-color="#5F1397"/></linearGradient><linearGradient id="paint14_linear" x1="35.427" y1="71.869" x2="41.122" y2="75.769" gradientUnits="userSpaceOnUse"><stop stop-color="#9F27F8"/><stop offset="1" stop-color="#5F1397"/></linearGradient><linearGradient id="paint15_linear" x1="38.702" y1="67.029" x2="41.869" y2="69.324" gradientUnits="userSpaceOnUse"><stop stop-color="#9F27F8"/><stop offset="1" stop-color="#5F1397"/></linearGradient></defs></svg>
